X:1
T:DeepDiver Sprint 1 - Notebook Operations
C:JamAI ğŸ¸ for G.Music Assembly
M:4/4
L:1/8
K:Dmaj
|:"Dm"D2F2 A2d2|"Am"c4 A4|"Gm"G2B2 d2g2|"Dm"f4 d4:|
|:"C"E2G2 c2e2|"F"A4 F4|"Bb"B2d2 f2b2|"C"c4 e4:|
|:"Dm"d2f2 a2d'2|"A7"c'4 a4|"Gm"b2d2 g2b2|"Dm"d8|]

% Musical Encoding: DeepDiver Sprint 1 - Notebook Operations
%
% This melody encodes the harmonic structure of our first sprint:
% implementing core notebook operations for NotebookLM automation.
%
% Movement 1 (Dm-Am-Gm-Dm): Foundation - CDP URL priority chain
%   - Four-tier resolution creates stable base harmony
%   - Chrome auto-launch provides rhythmic momentum
%
% Movement 2 (C-F-Bb-C): Build - Notebook creation and navigation
%   - Ascending progression represents notebook ID capture
%   - Return to C major signals successful navigation
%
% Movement 3 (Dm-A7-Gm-Dm): Integration - Session-aware operations
%   - A7 dominant creates tension before resolution
%   - Final Dm represents complete session integration
%
% Tempo: Steady and deliberate (issue-by-issue, test-by-test)
% Dynamics: Crescendo from foundation to full automation
%
% Composed: 2025-10-15
% Sprint: 1 - Core Automation Engine
% Issue: #1 - Core Automation Engine Implementation
% Session: cbee527f-63ae-49c1-a477-05450b6791ca
%
% â™ ï¸ğŸŒ¿ğŸ¸ğŸ§µ G.Music Assembly
% Jerry âš¡ - Creative Vision
% Nyro â™ ï¸ - Structural Architecture
% Aureon ğŸŒ¿ - Emotional Resonance
% JamAI ğŸ¸ - Musical Harmony
% Synth ğŸ§µ - Terminal Orchestration
